Newaita-dark/apps/22/tranquil.svg

<svg height="22pt" viewBox="0 0 22 22" width="22pt" xmlns="http://www.w3.org/2000/svg" xmlns:xlink="http://www.w3.org/1999/xlink"><linearGradient id="a"><stop offset="0" stop-opacity=".313725"/><stop offset=".222222" stop-opacity=".27451"/><stop offset="1" stop-opacity="0"/></linearGradient><radialGradient id="b" cx="450.90894" cy="189.57936" gradientTransform="matrix(.00000012 -.0537161 -.0966889 -.00000007 30.609667 43.721791)" gradientUnits="userSpaceOnUse" r="21.166656" xlink:href="#a"/><radialGradient id="c" cx="450.90894" cy="189.57936" gradientTransform="matrix(-.00000012 .0537161 .0966889 .00000007 -8.779458 -5.175143)" gradientUnits="userSpaceOnUse" r="21.166656" xlink:href="#a"/><radialGradient id="d" cx="450.90894" cy="189.57936" gradientTransform="matrix(-.00000012 -.0537161 .0966889 -.00000007 -8.779458 43.721791)" gradientUnits="userSpaceOnUse" r="21.166656" xlink:href="#a"/><radialGradient id="e" cx="450.90894" cy="189.57936" gradientTransform="matrix(.00000012 .0537161 -.0966889 .00000007 30.609666 -5.175144)" gradientUnits="userSpaceOnUse" r="21.166656" xlink:href="#a"/><linearGradient id="f" gradientTransform="matrix(.00918504 0 0 .0429729 8.569953 9.239164)" gradientUnits="userSpaceOnUse" x1="255.32306" x2="255.32304" y1="233.5" y2="254.66666"><stop offset="0" stop-opacity=".27451"/><stop offset="1" stop-opacity="0"/></linearGradient><linearGradient id="g" gradientUnits="userSpaceOnUse" x1="254" x2="254" y1="-168.66667" y2="233.5"><stop offset="0" stop-color="#ba68c8"/><stop offset="1" stop-color="#ab47bc"/></linearGradient><linearGradient id="h" gradientUnits="userSpaceOnUse" x1="10.9151166" x2="10.9151166" y1="19.27333515" y2="1.99106705676"><stop offset="0" stop-color="#ef9a9a"/><stop offset="1" stop-color="#ffcdd2"/></linearGradient><linearGradient id="i" gradientUnits="userSpaceOnUse" x1="10.915104" x2="10.915104" y1="19.27332442218" y2="1.99107562629"><stop offset="0" stop-color="#ec407a"/><stop offset="1" stop-color="#f06292"/></linearGradient><linearGradient id="j" gradientUnits="userSpaceOnUse" x1="10.915104" x2="10.915104" y1="19.27332442218" y2="1.99107562629"><stop offset="0" stop-color="#795548"/><stop offset="1" stop-color="#8d6e63"/></linearGradient><path d="m12.507812 19.273438h1.816407v-.910157h-1.816407zm0 0" fill="url(#b)"/><path d="m9.324219 19.273438h-1.820313v.910156h1.820313zm0 0" fill="url(#c)"/><path d="m9.324219 19.273438h-1.820313v-.910157h1.820313zm0 0" fill="url(#d)"/><path d="m12.507812 19.273438h1.816407v.910156h-1.816407zm0 0" fill="url(#e)"/><path d="m9.324219 19.046875h3.183593v1.136719h-3.183593zm0 0" fill="url(#f)"/><path d="m253.975747-168.640791c111.080301 0 201.071707 89.991407 201.071707 201.071708s-89.991406 201.071708-201.071707 201.071708c-110.989402 0-201.071708-89.991407-201.071708-201.071708s90.082306-201.071708 201.071708-201.071708zm0 0" fill="url(#g)" stroke="#333" stroke-linecap="round" stroke-width="3" transform="matrix(.0429729 0 0 .0429729 0 9.239163)"/><path d="m10.914062 5.628906c2.765626 0 5.003907 2.242188 5.003907 5.003906 0 2.761719-2.238281 5.003907-5.003907 5.003907-2.761718 0-5-2.242188-5-5.003907 0-2.761718 2.238282-5.003906 5-5.003906zm0 0" fill="url(#h)"/><path d="m10.914062 5.628906c-2.769531 0-5 2.230469-5 5.003906v.171876c.089844-2.695313 2.285157-4.835938 5-4.835938 2.714844 0 4.910157 2.140625 5 4.835938.003907-.058594.003907-.117188.003907-.171876 0-2.773437-2.230469-5.003906-5.003907-5.003906zm0 0" fill="#fff" fill-opacity=".392157"/><path d="m253.975747-84.012509c64.35749 0 116.443425 52.176836 116.443425 116.443426s-52.085935 116.443426-116.443425 116.443426c-64.266591 0-116.352526-52.176836-116.352526-116.443426s52.085935-116.443426 116.352526-116.443426zm0 0" fill="none" stroke="#212121" stroke-linecap="round" stroke-width="3" transform="matrix(.0429729 0 0 .0429729 0 9.239163)"/><path d="m6.691406 13.828125 2.859375 4.007813s1.535157.667968 3.035157 1.277343c2.914062-.566406 5.296874-2.589843 6.363281-5.285156zm0 0" fill="url(#i)"/><path d="m6.691406 13.828125.214844.300781h11.917969c.042969-.097656.085937-.199218.125-.300781zm0 0" fill="#fff" fill-opacity=".392157"/><path d="m588.519326 1216.204561 251.486366 352.493186s135.01932 58.748864 266.946595 112.34432c256.296215-49.816289 465.868187-227.780685 559.660234-464.837506zm0 0" fill="none" stroke="#212121" stroke-width="12.765609" transform="scale(.0113699)"/><path d="m2.667969 8.035156c-.253907.816406-.394531 1.691406-.394531 2.597656 0 4.785157 3.855468 8.640626 8.640624 8.640626 2.121094 0 4.0625-.757813 5.5625-2.015626-.726562-.089843-1.304687-.25-2.964843-.25-.925781 0-3.378907.828126-4.292969-.914062-.714844-1.378906-2.003906-2.480469-3.0625-2.757812-.902344-.230469-1.148438-1.101563-1.222656-2.148438-.085938-1.101562-.972656-1.132812-1.535156-1.84375-.378907-.492188-.476563-1.019531-.730469-1.308594zm0 0" fill="url(#j)"/><path d="m10.914062 19.273438c-4.785156 0-8.640624-3.855469-8.640624-8.640626 0-.027343 0-.058593 0-.085937.046874 4.75 3.882812 8.558594 8.640624 8.558594 4.761719 0 8.597657-3.808594 8.640626-8.558594v.085937c0 4.785157-3.851563 8.640626-8.640626 8.640626zm0 0" fill-opacity=".196078"/><path d="m10.914062 1.992188c-4.785156 0-8.640624 3.851562-8.640624 8.640624v.085938c.046874-4.75 3.882812-8.558594 8.640624-8.558594 4.761719 0 8.597657 3.808594 8.640626 8.558594 0-.03125 0-.058594 0-.085938 0-4.789062-3.851563-8.640624-8.640626-8.640624zm0 0" fill="#fff" fill-opacity=".392157"/><path d="m2.667969 8.035156c-.253907.816406-.394531 1.691406-.394531 2.597656v.136719c.015624-.855469.152343-1.679687.394531-2.457031.253906.292969.351562.820312.730469 1.3125.5625.710938 1.449218.742188 1.535156 1.84375.074218 1.046875.320312 1.914062 1.222656 2.148438 1.058594.277343 2.347656 1.378906 3.0625 2.757812.914062 1.742188 3.367188.914062 4.292969.914062 1.429687 0 2.058593.117188 2.664062.207032.101563-.078125.203125-.15625.300781-.238282-.726562-.089843-1.304687-.25-2.964843-.25-.925781 0-3.378907.828126-4.292969-.914062-.714844-1.378906-2.003906-2.480469-3.0625-2.757812-.902344-.230469-1.148438-1.101563-1.222656-2.148438-.085938-1.101562-.972656-1.132812-1.535156-1.84375-.378907-.492188-.476563-1.019531-.730469-1.308594zm0 0" fill="#fff" fill-opacity=".392157"/><path d="m10.914062 1.925781c-4.820312 0-8.703124 3.882813-8.703124 8.707031 0 4.820313 3.882812 8.703126 8.703124 8.703126 4.824219 0 8.707032-3.882813 8.707032-8.703126 0-4.824218-3.882813-8.707031-8.707032-8.707031zm0 .128907c4.753907 0 8.578126 3.824218 8.578126 8.578124 0 4.75-3.824219 8.574219-8.578126 8.574219-4.75 0-8.574218-3.824219-8.574218-8.574219 0-4.753906 3.824218-8.578124 8.574218-8.578124zm0 0" fill="#212121"/><path d="m2.730469 7.675781c-.148438.464844-.257813.945313-.324219 1.441407.0625-.371094.152344-.730469.261719-1.082032.253906.289063.351562.816406.730469 1.308594.5625.710938 1.449218.742188 1.535156 1.84375.074218 1.046875.320312 1.917969 1.222656 2.148438 1.058594.277343 2.347656 1.378906 3.0625 2.757812.914062 1.742188 3.367188.914062 4.292969.914062 1.660156 0 2.238281.160157 2.964843.25-.007812.003907-.011718.007813-.019531.015626.125-.09375.25-.191407.371094-.292969-.742187-.089844-1.332031-.25-3.027344-.25-.949219 0-3.453125.835937-4.386719-.921875-.726562-1.390625-2.042968-2.503906-3.125-2.78125-.921874-.234375-1.171874-1.113282-1.246093-2.167969-.089844-1.113281-.992188-1.144531-1.570313-1.859375-.386718-.496094-.484375-1.03125-.742187-1.324219zm0 0" fill-opacity=".235294"/><path d="m234.651897 706.704176c-22.33144 71.804167-34.699622 148.761744-34.699622 228.467805 0 420.861748 339.094323 759.956071 759.95607 759.956071 186.553412 0 357.303035-66.650759 489.23031-177.277275-63.902274-7.901894-114.749244-21.987879-260.762504-21.987879-81.423864 0-297.179928 72.834849-377.57311-80.393183-62.871592-121.276896-176.246594-218.160988-269.351519-242.553791-79.362501-20.270076-101.006819-96.884092-107.534471-188.958336-7.558334-96.884092-85.546592-99.632577-135.01932-162.160608-33.325379-43.288637-41.914394-89.669319-64.245834-115.092804zm0 0" fill="none" stroke="#212121" stroke-width="12.765609" transform="scale(.0113699)"/><path d="m6.867188 13.578125c.074218.101563.152343.203125.234374.300781h7.625c.082032-.097656.164063-.199218.238282-.300781zm0 0" fill-opacity=".235294"/></svg>

<?xml version="1.0" encoding="UTF-8"?>
<svg xmlns="http://www.w3.org/2000/svg" xmlns:xlink="http://www.w3.org/1999/xlink" width="22pt" height="22pt" viewBox="0 0 22 22" version="1.1">
<defs>
<radialGradient id="radial0" gradientUnits="userSpaceOnUse" cx="450.90894" cy="189.57936" fx="450.90894" fy="189.57936" r="21.166656" gradientTransform="matrix(0.000000119742,-0.0537161,-0.0966889,-0.0000000698078,30.609667,43.721791)">
<stop offset="0" style="stop-color:rgb(0%,0%,0%);stop-opacity:0.313725;"/>
<stop offset="0.222222" style="stop-color:rgb(0%,0%,0%);stop-opacity:0.27451;"/>
<stop offset="1" style="stop-color:rgb(0%,0%,0%);stop-opacity:0;"/>
</radialGradient>
<radialGradient id="radial1" gradientUnits="userSpaceOnUse" cx="450.90894" cy="189.57936" fx="450.90894" fy="189.57936" r="21.166656" gradientTransform="matrix(-0.000000119742,0.0537161,0.0966889,0.0000000698078,-8.779458,-5.175143)">
<stop offset="0" style="stop-color:rgb(0%,0%,0%);stop-opacity:0.313725;"/>
<stop offset="0.222222" style="stop-color:rgb(0%,0%,0%);stop-opacity:0.27451;"/>
<stop offset="1" style="stop-color:rgb(0%,0%,0%);stop-opacity:0;"/>
</radialGradient>
<radialGradient id="radial2" gradientUnits="userSpaceOnUse" cx="450.90894" cy="189.57936" fx="450.90894" fy="189.57936" r="21.166656" gradientTransform="matrix(-0.000000119742,-0.0537161,0.0966889,-0.0000000698078,-8.779458,43.721791)">
<stop offset="0" style="stop-color:rgb(0%,0%,0%);stop-opacity:0.313725;"/>
<stop offset="0.222222" style="stop-color:rgb(0%,0%,0%);stop-opacity:0.27451;"/>
<stop offset="1" style="stop-color:rgb(0%,0%,0%);stop-opacity:0;"/>
</radialGradient>
<radialGradient id="radial3" gradientUnits="userSpaceOnUse" cx="450.90894" cy="189.57936" fx="450.90894" fy="189.57936" r="21.166656" gradientTransform="matrix(0.000000119742,0.0537161,-0.0966889,0.0000000698078,30.609666,-5.175144)">
<stop offset="0" style="stop-color:rgb(0%,0%,0%);stop-opacity:0.313725;"/>
<stop offset="0.222222" style="stop-color:rgb(0%,0%,0%);stop-opacity:0.27451;"/>
<stop offset="1" style="stop-color:rgb(0%,0%,0%);stop-opacity:0;"/>
</radialGradient>
<linearGradient id="linear0" gradientUnits="userSpaceOnUse" x1="255.32306" y1="233.5" x2="255.32304" y2="254.66666" gradientTransform="matrix(0.00918504,0,0,0.0429729,8.569953,9.239164)">
<stop offset="0" style="stop-color:rgb(0%,0%,0%);stop-opacity:0.27451;"/>
<stop offset="1" style="stop-color:rgb(0%,0%,0%);stop-opacity:0;"/>
</linearGradient>
<linearGradient id="linear1" gradientUnits="userSpaceOnUse" x1="254" y1="-168.66667" x2="254" y2="233.5" >
<stop offset="0" style="stop-color:rgb(72.941176%,40.784314%,78.431373%);stop-opacity:1;"/>
<stop offset="1" style="stop-color:rgb(67.058824%,27.843137%,73.72549%);stop-opacity:1;"/>
</linearGradient>
<linearGradient id="linear2" gradientUnits="userSpaceOnUse" x1="254" y1="233.5" x2="254" y2="-168.66667" gradientTransform="matrix(0.0429729,0,0,0.0429729,0,9.239163)">
<stop offset="0" style="stop-color:rgb(93.72549%,60.392157%,60.392157%);stop-opacity:1;"/>
<stop offset="1" style="stop-color:rgb(100%,80.392157%,82.352941%);stop-opacity:1;"/>
</linearGradient>
<linearGradient id="linear3" gradientUnits="userSpaceOnUse" x1="960" y1="1695.1182" x2="960" y2="175.11813" gradientTransform="matrix(0.0113699,0,0,0.0113699,0,0)">
<stop offset="0" style="stop-color:rgb(92.54902%,25.098039%,47.843137%);stop-opacity:1;"/>
<stop offset="1" style="stop-color:rgb(94.117647%,38.431373%,57.254902%);stop-opacity:1;"/>
</linearGradient>
<linearGradient id="linear4" gradientUnits="userSpaceOnUse" x1="960" y1="1695.1182" x2="960" y2="175.11813" gradientTransform="matrix(0.0113699,0,0,0.0113699,0,0)">
<stop offset="0" style="stop-color:rgb(47.45098%,33.333333%,28.235294%);stop-opacity:1;"/>
<stop offset="1" style="stop-color:rgb(55.294118%,43.137255%,38.823529%);stop-opacity:1;"/>
</linearGradient>
</defs>
<g id="surface1">
<path style=" stroke:none;fill-rule:nonzero;fill:url(#radial0);" d="M 12.507812 19.273438 L 14.324219 19.273438 L 14.324219 18.363281 L 12.507812 18.363281 Z M 12.507812 19.273438 "/>
<path style=" stroke:none;fill-rule:nonzero;fill:url(#radial1);" d="M 9.324219 19.273438 L 7.503906 19.273438 L 7.503906 20.183594 L 9.324219 20.183594 Z M 9.324219 19.273438 "/>
<path style=" stroke:none;fill-rule:nonzero;fill:url(#radial2);" d="M 9.324219 19.273438 L 7.503906 19.273438 L 7.503906 18.363281 L 9.324219 18.363281 Z M 9.324219 19.273438 "/>
<path style=" stroke:none;fill-rule:nonzero;fill:url(#radial3);" d="M 12.507812 19.273438 L 14.324219 19.273438 L 14.324219 20.183594 L 12.507812 20.183594 Z M 12.507812 19.273438 "/>
<path style=" stroke:none;fill-rule:nonzero;fill:url(#linear0);" d="M 9.324219 19.046875 L 12.507812 19.046875 L 12.507812 20.183594 L 9.324219 20.183594 Z M 9.324219 19.046875 "/>
<path style="fill-rule:nonzero;fill:url(#linear1);stroke-width:3;stroke-linecap:round;stroke-linejoin:miter;stroke:rgb(20%,20%,20%);stroke-opacity:1;stroke-miterlimit:4;" d="M 253.975747 -168.640791 C 365.056048 -168.640791 455.047454 -78.649384 455.047454 32.430917 C 455.047454 143.511218 365.056048 233.502625 253.975747 233.502625 C 142.986345 233.502625 52.904039 143.511218 52.904039 32.430917 C 52.904039 -78.649384 142.986345 -168.640791 253.975747 -168.640791 Z M 253.975747 -168.640791 " transform="matrix(0.0429729,0,0,0.0429729,0,9.239163)"/>
<path style=" stroke:none;fill-rule:nonzero;fill:url(#linear2);" d="M 10.914062 5.628906 C 13.679688 5.628906 15.917969 7.871094 15.917969 10.632812 C 15.917969 13.394531 13.679688 15.636719 10.914062 15.636719 C 8.152344 15.636719 5.914062 13.394531 5.914062 10.632812 C 5.914062 7.871094 8.152344 5.628906 10.914062 5.628906 Z M 10.914062 5.628906 "/>
<path style=" stroke:none;fill-rule:nonzero;fill:rgb(100%,100%,100%);fill-opacity:0.392157;" d="M 10.914062 5.628906 C 8.144531 5.628906 5.914062 7.859375 5.914062 10.632812 C 5.914062 10.6875 5.914062 10.746094 5.914062 10.804688 C 6.003906 8.109375 8.199219 5.96875 10.914062 5.96875 C 13.628906 5.96875 15.824219 8.109375 15.914062 10.804688 C 15.917969 10.746094 15.917969 10.6875 15.917969 10.632812 C 15.917969 7.859375 13.6875 5.628906 10.914062 5.628906 Z M 10.914062 5.628906 "/>
<path style="fill:none;stroke-width:3;stroke-linecap:round;stroke-linejoin:miter;stroke:rgb(12.941176%,12.941176%,12.941176%);stroke-opacity:1;stroke-miterlimit:4;" d="M 253.975747 -84.012509 C 318.333237 -84.012509 370.419172 -31.835673 370.419172 32.430917 C 370.419172 96.697507 318.333237 148.874343 253.975747 148.874343 C 189.709156 148.874343 137.623221 96.697507 137.623221 32.430917 C 137.623221 -31.835673 189.709156 -84.012509 253.975747 -84.012509 Z M 253.975747 -84.012509 " transform="matrix(0.0429729,0,0,0.0429729,0,9.239163)"/>
<path style=" stroke:none;fill-rule:nonzero;fill:url(#linear3);" d="M 6.691406 13.828125 L 9.550781 17.835938 C 9.550781 17.835938 11.085938 18.503906 12.585938 19.113281 C 15.5 18.546875 17.882812 16.523438 18.949219 13.828125 Z M 6.691406 13.828125 "/>
<path style=" stroke:none;fill-rule:nonzero;fill:rgb(100%,100%,100%);fill-opacity:0.392157;" d="M 6.691406 13.828125 L 6.90625 14.128906 L 18.824219 14.128906 C 18.867188 14.03125 18.910156 13.929688 18.949219 13.828125 Z M 6.691406 13.828125 "/>
<path style="fill:none;stroke-width:12.765609;stroke-linecap:butt;stroke-linejoin:miter;stroke:rgb(12.941176%,12.941176%,12.941176%);stroke-opacity:1;stroke-miterlimit:4;" d="M 588.519326 1216.204561 L 840.005692 1568.697747 C 840.005692 1568.697747 975.025012 1627.446611 1106.952287 1681.042067 C 1363.248502 1631.225778 1572.820474 1453.261382 1666.612521 1216.204561 Z M 588.519326 1216.204561 " transform="matrix(0.0113699,0,0,0.0113699,0,0)"/>
<path style=" stroke:none;fill-rule:nonzero;fill:url(#linear4);" d="M 2.667969 8.035156 C 2.414062 8.851562 2.273438 9.726562 2.273438 10.632812 C 2.273438 15.417969 6.128906 19.273438 10.914062 19.273438 C 13.035156 19.273438 14.976562 18.515625 16.476562 17.257812 C 15.75 17.167969 15.171875 17.007812 13.511719 17.007812 C 12.585938 17.007812 10.132812 17.835938 9.21875 16.09375 C 8.503906 14.714844 7.214844 13.613281 6.15625 13.335938 C 5.253906 13.105469 5.007812 12.234375 4.933594 11.1875 C 4.847656 10.085938 3.960938 10.054688 3.398438 9.34375 C 3.019531 8.851562 2.921875 8.324219 2.667969 8.035156 Z M 2.667969 8.035156 "/>
<path style=" stroke:none;fill-rule:nonzero;fill:rgb(0%,0%,0%);fill-opacity:0.196078;" d="M 10.914062 19.273438 C 6.128906 19.273438 2.273438 15.417969 2.273438 10.632812 C 2.273438 10.605469 2.273438 10.574219 2.273438 10.546875 C 2.320312 15.296875 6.15625 19.105469 10.914062 19.105469 C 15.675781 19.105469 19.511719 15.296875 19.554688 10.546875 C 19.554688 10.574219 19.554688 10.605469 19.554688 10.632812 C 19.554688 15.417969 15.703125 19.273438 10.914062 19.273438 Z M 10.914062 19.273438 "/>
<path style=" stroke:none;fill-rule:nonzero;fill:rgb(100%,100%,100%);fill-opacity:0.392157;" d="M 10.914062 1.992188 C 6.128906 1.992188 2.273438 5.84375 2.273438 10.632812 C 2.273438 10.660156 2.273438 10.6875 2.273438 10.71875 C 2.320312 5.96875 6.15625 2.160156 10.914062 2.160156 C 15.675781 2.160156 19.511719 5.96875 19.554688 10.71875 C 19.554688 10.6875 19.554688 10.660156 19.554688 10.632812 C 19.554688 5.84375 15.703125 1.992188 10.914062 1.992188 Z M 10.914062 1.992188 "/>
<path style=" stroke:none;fill-rule:nonzero;fill:rgb(100%,100%,100%);fill-opacity:0.392157;" d="M 2.667969 8.035156 C 2.414062 8.851562 2.273438 9.726562 2.273438 10.632812 C 2.273438 10.679688 2.273438 10.726562 2.273438 10.769531 C 2.289062 9.914062 2.425781 9.089844 2.667969 8.3125 C 2.921875 8.605469 3.019531 9.132812 3.398438 9.625 C 3.960938 10.335938 4.847656 10.367188 4.933594 11.46875 C 5.007812 12.515625 5.253906 13.382812 6.15625 13.617188 C 7.214844 13.894531 8.503906 14.996094 9.21875 16.375 C 10.132812 18.117188 12.585938 17.289062 13.511719 17.289062 C 14.941406 17.289062 15.570312 17.40625 16.175781 17.496094 C 16.277344 17.417969 16.378906 17.339844 16.476562 17.257812 C 15.75 17.167969 15.171875 17.007812 13.511719 17.007812 C 12.585938 17.007812 10.132812 17.835938 9.21875 16.09375 C 8.503906 14.714844 7.214844 13.613281 6.15625 13.335938 C 5.253906 13.105469 5.007812 12.234375 4.933594 11.1875 C 4.847656 10.085938 3.960938 10.054688 3.398438 9.34375 C 3.019531 8.851562 2.921875 8.324219 2.667969 8.035156 Z M 2.667969 8.035156 "/>
<path style=" stroke:none;fill-rule:nonzero;fill:rgb(12.941176%,12.941176%,12.941176%);fill-opacity:1;" d="M 10.914062 1.925781 C 6.09375 1.925781 2.210938 5.808594 2.210938 10.632812 C 2.210938 15.453125 6.09375 19.335938 10.914062 19.335938 C 15.738281 19.335938 19.621094 15.453125 19.621094 10.632812 C 19.621094 5.808594 15.738281 1.925781 10.914062 1.925781 Z M 10.914062 2.054688 C 15.667969 2.054688 19.492188 5.878906 19.492188 10.632812 C 19.492188 15.382812 15.667969 19.207031 10.914062 19.207031 C 6.164062 19.207031 2.339844 15.382812 2.339844 10.632812 C 2.339844 5.878906 6.164062 2.054688 10.914062 2.054688 Z M 10.914062 2.054688 "/>
<path style=" stroke:none;fill-rule:nonzero;fill:rgb(0%,0%,0%);fill-opacity:0.235294;" d="M 2.730469 7.675781 C 2.582031 8.140625 2.472656 8.621094 2.40625 9.117188 C 2.46875 8.746094 2.558594 8.386719 2.667969 8.035156 C 2.921875 8.324219 3.019531 8.851562 3.398438 9.34375 C 3.960938 10.054688 4.847656 10.085938 4.933594 11.1875 C 5.007812 12.234375 5.253906 13.105469 6.15625 13.335938 C 7.214844 13.613281 8.503906 14.714844 9.21875 16.09375 C 10.132812 17.835938 12.585938 17.007812 13.511719 17.007812 C 15.171875 17.007812 15.75 17.167969 16.476562 17.257812 C 16.46875 17.261719 16.464844 17.265625 16.457031 17.273438 C 16.582031 17.179688 16.707031 17.082031 16.828125 16.980469 C 16.085938 16.890625 15.496094 16.730469 13.800781 16.730469 C 12.851562 16.730469 10.347656 17.566406 9.414062 15.808594 C 8.6875 14.417969 7.371094 13.304688 6.289062 13.027344 C 5.367188 12.792969 5.117188 11.914062 5.042969 10.859375 C 4.953125 9.746094 4.050781 9.714844 3.472656 9 C 3.085938 8.503906 2.988281 7.96875 2.730469 7.675781 Z M 2.730469 7.675781 "/>
<path style="fill:none;stroke-width:12.765609;stroke-linecap:butt;stroke-linejoin:miter;stroke:rgb(12.941176%,12.941176%,12.941176%);stroke-opacity:1;stroke-miterlimit:4;" d="M 234.651897 706.704176 C 212.320457 778.508343 199.952275 855.46592 199.952275 935.171981 C 199.952275 1356.033729 539.046598 1695.128052 959.908345 1695.128052 C 1146.461757 1695.128052 1317.21138 1628.477293 1449.138655 1517.850777 C 1385.236381 1509.948883 1334.389411 1495.862898 1188.376151 1495.862898 C 1106.952287 1495.862898 891.196223 1568.697747 810.803041 1415.469715 C 747.931449 1294.192819 634.556447 1197.308727 541.451522 1172.915924 C 462.089021 1152.645848 440.444703 1076.031832 433.917051 983.957588 C 426.358717 887.073496 348.370459 884.325011 298.897731 821.79698 C 265.572352 778.508343 256.983337 732.127661 234.651897 706.704176 Z M 234.651897 706.704176 " transform="matrix(0.0113699,0,0,0.0113699,0,0)"/>
<path style=" stroke:none;fill-rule:nonzero;fill:rgb(0%,0%,0%);fill-opacity:0.235294;" d="M 6.867188 13.578125 C 6.941406 13.679688 7.019531 13.78125 7.101562 13.878906 L 14.726562 13.878906 C 14.808594 13.78125 14.890625 13.679688 14.964844 13.578125 Z M 6.867188 13.578125 "/>
</g>
</svg>
